X: 1
T:Les Magiciens 3 (C. Caron) - Tour
C:Burns Duo
M:4/4
L:1/8
K:C
E|:A2 AB c2 e2|d2B2 cdcB|\
A2 Ac e3 e|1 d2 d2 e3E:|2 d2 d2 .e2 de||
|:f2 f2 e3 d| cdcB A2 ce|\
A2 ce d3B|1 GcBc A2 de:|2 AcBc A3E||
